web/themes/quartiers_solidaires/assets/icons/calendar.svg

<?xml version="1.0" encoding="UTF-8"?>
<svg width="50px" height="50px" viewBox="0 0 50 50" version="1.1" xmlns="http://www.w3.org/2000/svg" xmlns:xlink="http://www.w3.org/1999/xlink">
    <g id="Page-1" stroke="none" stroke-width="1" fill="currentColor" fill-rule="evenodd">
        <path d="M43.9998,11.0001 L6.9998,11.0001 L6.9998,44.0001 L43.9998,44.0001 L43.9998,11.0001 Z M44.1668,47.0001 L6.8338,47.0001 C5.26870143,47.0001 3.9998,45.7318557 3.9998,44.1671 L3.9998,10.8331 C3.9998,9.2683443 5.26870143,8.0001 6.8338,8.0001 L44.1668,8.0001 C45.7312271,8.0001 46.9998,9.26867288 46.9998,10.8331 L46.9998,44.1671 C46.9998,45.7315271 45.7312271,47.0001 44.1668,47.0001 Z" id="Stroke-1" fill-rule="nonzero"></path>
        <path d="M14.0081,5.5 L14.0081,9.5 C14.0081,10.3284271 14.6796729,11 15.5081,11 C16.3365271,11 17.0081,10.3284271 17.0081,9.5 L17.0081,5.5 C17.0081,4.67157288 16.3365271,4 15.5081,4 C14.6796729,4 14.0081,4.67157288 14.0081,5.5 Z" id="Stroke-3" fill-rule="nonzero"></path>
        <path d="M34.0081,5.5 L34.0081,9.5 C34.0081,10.3284271 34.6796729,11 35.5081,11 C36.3365271,11 37.0081,10.3284271 37.0081,9.5 L37.0081,5.5 C37.0081,4.67157288 36.3365271,4 35.5081,4 C34.6796729,4 34.0081,4.67157288 34.0081,5.5 Z" id="Stroke-5" fill-rule="nonzero"></path>
        <path d="M5.5,23.0001 L45.5,23.0001 C46.3284271,23.0001 47,22.3285271 47,21.5001 C47,20.6716729 46.3284271,20.0001 45.5,20.0001 L5.5,20.0001 C4.67157288,20.0001 4,20.6716729 4,21.5001 C4,22.3285271 4.67157288,23.0001 5.5,23.0001 Z" id="Stroke-7" fill-rule="nonzero"></path>
        <path d="M5.5,31.0001 L45.5,31.0001 C46.3284271,31.0001 47,30.3285271 47,29.5001 C47,28.6716729 46.3284271,28.0001 45.5,28.0001 L5.5,28.0001 C4.67157288,28.0001 4,28.6716729 4,29.5001 C4,30.3285271 4.67157288,31.0001 5.5,31.0001 Z" id="Stroke-9" fill-rule="nonzero"></path>
        <path d="M5.5,39.0001 L45.5,39.0001 C46.3284271,39.0001 47,38.3285271 47,37.5001 C47,36.6716729 46.3284271,36.0001 45.5,36.0001 L5.5,36.0001 C4.67157288,36.0001 4,36.6716729 4,37.5001 C4,38.3285271 4.67157288,39.0001 5.5,39.0001 Z" id="Stroke-11" fill-rule="nonzero"></path>
    </g>
</svg>

<svg viewBox="0 0 50 50" xmlns="http://www.w3.org/2000/svg">
  <g fill="currentColor" fill-rule="nonzero">
    <path d="M44 11H7v33h37V11zm.167 36H6.834A2.833 2.833 0 0 1 4 44.167V10.833A2.833 2.833 0 0 1 6.834 8h37.333A2.833 2.833 0 0 1 47 10.833v33.334A2.833 2.833 0 0 1 44.167 47z"/>
    <path d="M14.008 5.5v4a1.5 1.5 0 0 0 3 0v-4a1.5 1.5 0 0 0-3 0zM34.008 5.5v4a1.5 1.5 0 0 0 3 0v-4a1.5 1.5 0 0 0-3 0zM5.5 23h40a1.5 1.5 0 0 0 0-3h-40a1.5 1.5 0 0 0 0 3zM5.5 31h40a1.5 1.5 0 0 0 0-3h-40a1.5 1.5 0 0 0 0 3zM5.5 39h40a1.5 1.5 0 0 0 0-3h-40a1.5 1.5 0 0 0 0 3z"/>
  </g>
</svg>
